svg/fluentui-system-icons/ic_fluent_sound_source_20_filled.svg

<svg width="20" height="20" viewBox="0 0 20 20" fill="none" xmlns="http://www.w3.org/2000/svg">
<path d="M3 10C3 6.13401 6.13401 3 10 3C13.866 3 17 6.13401 17 10C17 11.8344 16.2944 13.504 15.1398 14.7521L15.79 15.5205C17.1593 14.0848 18 12.1406 18 10C18 5.58172 14.4183 2 10 2C5.58172 2 2 5.58172 2 10C2 12.1406 2.84073 14.0848 4.21001 15.5205L4.86019 14.7521C3.7056 13.504 3 11.8344 3 10ZM14.1616 13.5961C14.9955 12.6319 15.5 11.3749 15.5 10C15.5 6.96243 13.0376 4.5 10 4.5C6.96243 4.5 4.5 6.96243 4.5 10C4.5 11.3749 5.00446 12.6319 5.83838 13.5961L6.49401 12.8213C5.87221 12.0495 5.5 11.0682 5.5 10C5.5 7.51472 7.51472 5.5 10 5.5C12.4853 5.5 14.5 7.51472 14.5 10C14.5 11.0682 14.1278 12.0495 13.506 12.8213L14.1616 13.5961ZM12.5098 11.644C12.8197 11.1718 13 10.607 13 10C13 8.34315 11.6569 7 10 7C8.34315 7 7 8.34315 7 10C7 10.607 7.18025 11.1718 7.49015 11.644L8.1795 10.8293C8.06423 10.5767 8 10.2958 8 10C8 8.89543 8.89543 8 10 8C11.1046 8 12 8.89543 12 10C12 10.2958 11.9358 10.5767 11.8205 10.8293L12.5098 11.644ZM10.3817 10.677C10.2867 10.5648 10.1471 10.5 10 10.5C9.85293 10.5 9.71332 10.5648 9.61831 10.677L4.11831 17.177C3.99256 17.3257 3.9645 17.5338 4.04642 17.7104C4.12833 17.887 4.30532 18 4.50001 18H15.5C15.6947 18 15.8717 17.887 15.9536 17.7104C16.0355 17.5338 16.0075 17.3257 15.8817 17.177L10.3817 10.677Z" fill="#212121"/>
</svg>

<svg xmlns="http://www.w3.org/2000/svg" width="20" height="20"><path d="M3 10a7 7 0 1 1 12.14 4.752l.65.768a8 8 0 1 0-11.58 0l.65-.768A6.975 6.975 0 0 1 3 10Zm11.162 3.596a5.5 5.5 0 1 0-8.323 0l.655-.775a4.5 4.5 0 1 1 7.012 0l.656.775Zm-1.652-1.952a3 3 0 1 0-5.02 0l.69-.815a2 2 0 1 1 3.641 0l.689.815Zm-2.128-.967a.5.5 0 0 0-.764 0l-5.5 6.5A.5.5 0 0 0 4.5 18h11a.5.5 0 0 0 .382-.823l-5.5-6.5Z"/></svg>
